libs/ui/packages/crypto-icons/src/svg/STRAT.svg

<svg width="24" height="24" viewBox="0 0 24 24" fill="none">
<path d="M12.0399 13.78L19.2354 9.59201L12.0399 5.32902L4.91641 9.59201L12.0399 13.78ZM4.53541 11.59C4.53526 11.6896 4.56122 11.7875 4.6107 11.874C4.66018 11.9605 4.73145 12.0324 4.81741 12.0828L12.0377 16.2888L19.3764 11.9478C19.4607 11.899 19.5563 11.8733 19.6536 11.8733C19.751 11.8732 19.8466 11.8988 19.9309 11.9475C20.0153 11.9962 20.0853 12.0662 20.1339 12.1505C20.1826 12.2348 20.2082 12.3304 20.2082 12.4278V14.3973C20.2081 14.4935 20.1832 14.5881 20.1357 14.6718C20.0883 14.7555 20.02 14.8255 19.9374 14.875L12.3197 19.4223C12.2352 19.4728 12.1387 19.4996 12.0402 19.5C11.9418 19.5004 11.8451 19.4743 11.7602 19.4245L3.94516 14.83C3.85511 14.7767 3.78971 14.69 3.76317 14.5888C3.73664 14.4875 3.7511 14.3799 3.80341 14.2893C3.82911 14.2444 3.86345 14.2052 3.90443 14.1737C3.94542 14.1422 3.99223 14.1192 4.04218 14.1059C4.09212 14.0927 4.14419 14.0895 4.19538 14.0965C4.24657 14.1035 4.29587 14.1206 4.34041 14.1468L12.0377 18.6715L19.4229 14.263V12.838L12.3182 17.0403C12.234 17.0902 12.1381 17.1167 12.0402 17.1171C11.9424 17.1175 11.8462 17.0918 11.7617 17.0425L4.42441 12.7675C4.21887 12.6474 4.04843 12.4754 3.93012 12.2688C3.81181 12.0621 3.74976 11.8281 3.75016 11.59V9.73526C3.74992 9.65204 3.77163 9.57022 3.81311 9.49807C3.85458 9.42591 3.91435 9.36597 3.98638 9.32428C4.05842 9.2826 4.14017 9.26065 4.2234 9.26064C4.30662 9.26064 4.38838 9.28259 4.46041 9.32426L4.91641 9.59201L4.34341 9.93476C4.28861 9.96788 4.22651 9.98703 4.16258 9.99051C4.09864 9.994 4.03483 9.98172 3.97676 9.95476C3.91868 9.92779 3.86812 9.88697 3.82952 9.83588C3.79093 9.78479 3.76548 9.725 3.75541 9.66176C3.74212 9.58301 3.7529 9.50207 3.78636 9.42954C3.81981 9.35702 3.87438 9.29628 3.94291 9.25526L11.7572 4.57827C11.8421 4.52731 11.9392 4.50027 12.0382 4.5C12.1372 4.49974 12.2345 4.52626 12.3197 4.57677L19.9779 9.11426C20.0612 9.16394 20.1301 9.23446 20.1779 9.31889C20.2256 9.40331 20.2505 9.49872 20.2501 9.59571C20.2498 9.6927 20.2241 9.78791 20.1757 9.87196C20.1273 9.95601 20.0579 10.026 19.9742 10.075L12.3152 14.533C12.2309 14.5822 12.1351 14.6081 12.0376 14.6079C11.94 14.6078 11.8443 14.5817 11.7602 14.5323L4.06516 10.0075C4.10586 10.0314 4.15146 10.0458 4.19852 10.0495C4.24558 10.0532 4.29286 10.0462 4.33679 10.0289C4.38073 10.0116 4.42016 9.98458 4.4521 9.94982C4.48404 9.91506 4.50766 9.8735 4.52116 9.82826C4.53076 9.79818 4.53582 9.76684 4.53616 9.73526V11.5908L4.53541 11.59Z" fill="#1387C9"/>
</svg>

<svg width="24" height="24" viewBox="0 0 24 24" fill="none"><path fill="#1387c9" d="m12.04 13.78 7.195-4.188-7.195-4.263-7.124 4.263zm-7.505-2.19a.57.57 0 0 0 .282.493l7.22 4.206 7.34-4.341a.553.553 0 0 1 .831.48v1.97a.56.56 0 0 1-.27.477l-7.618 4.547a.55.55 0 0 1-.56.002L3.945 14.83a.397.397 0 0 1 .097-.724.4.4 0 0 1 .298.04l7.698 4.526 7.385-4.409v-1.425l-7.105 4.202a.55.55 0 0 1-.556.003l-7.338-4.275a1.36 1.36 0 0 1-.674-1.178V9.735a.473.473 0 0 1 .71-.41l.456.267-.573.343a.39.39 0 0 1-.588-.273.4.4 0 0 1 .188-.407l7.814-4.677a.55.55 0 0 1 .563-.001l7.658 4.537a.56.56 0 0 1-.004.961l-7.659 4.458a.55.55 0 0 1-.555 0l-7.695-4.525a.312.312 0 0 0 .471-.273v1.856z"/></svg>
